X: 178
T: Salve regina IV
N: Derived from Rue2024-Salve_regina_IV.krn
C: Pierre de la Rue
%%abc-version 2.0
%%abcx-abcm2ps-target-version 5.9.1 (29 Sep 2008)
%%abc-creator hum2abc beta
%%abcx-conversion-date 2019/02/17 08:01:17
%%abc-edited-by Jesse Rodin
%%abc-edited-by Chris Gage 02-12-2013
%%abcx-initial-encoding-date 2013/05/04/
%%humdrum-veritas 2271751401
%%humdrum-veritas-data 1046718247
%%linebreak <none>
%%barnumbers 0
L: 1/4
M: 3/1
Q: 1/2=120
%%staves [1 2 3 4]
V: 1 clef=treble
V: 2 clef=treble
V: 3 clef=treble-8
V: 4 clef=bass
K: C
[V:1] e8e4 | 
[V:2] A4G4A4 | 
[V:3] z12 | 
[V:4] z12 | 
[V:1] f4e2e3dc2 | 
[V:2] D4z4z2A2- | 
[V:3] z4e4c3d | 
[V:4] z12 | 
[V:1] B4A4z4 | 
[V:2] A2G2F2EDE4- | 
[V:3] e4A8 | 
[V:4] z12 | 
[V:1] e4d2g3ff2- | 
[V:2] E4F2G2E2A2- | 
[V:3] z4z2e4d2 | 
[V:4] z12 | 
[V:1] fee3dd4^c2 | 
[V:2] AGEFG3FE4 | 
[V:3] c2BAB4A4- | 
[V:4] A,4G,4A,4 | 
[V:1] d8z4 | 
[V:2] D8z4 | 
[V:3] A2B2A2B2c2e2- | 
[V:4] D,8A,4- | 
[V:1] c4d2e4g2 | 
[V:2] z4z4C4 | 
[V:3] edc2B2A4G2 | 
[V:4] A,4G,3F,E,4 | 
[V:1] f2d2e2dcB4 | 
[V:2] D2F2E2A4G2 | 
[V:3] A4z2e2f2e2 | 
[V:4] D,4C,4D,2E,2 | 
[V:1] A2c2B2A3GE2- | 
[V:2] A4z4z4 | 
[V:3] c3de2f2d2cd | 
[V:4] F,4G,2F,2G,2A,2- | 
[V:1] E2B3AA4G2 | 
[V:2] z4z4D4 | 
[V:3] efg2e2f4ed | 
[V:4] A,2G,2A,4_B,4 | 
[V:1] A8z4 | 
[V:2] E8F2E2 | 
[V:3] c8c2A2- | 
[V:4] A,12 | 
[V:1] e4e4d4 | 
[V:2] CDEFG2A4^G2 | 
[V:3] ABcde2c2B4 | 
[V:4] z12 | 
[V:1] c4B2A2c2d2 | 
[V:2] A3FG2A2G2F2 | 
[V:3] A4z2F2G2A2 | 
[V:4] z4z2D,2E,2F,2 | 
[V:1] e2g2f2e3dc2 | 
[V:2] E2cBA2G4^F2 | 
[V:3] B2G2A2B2c4 | 
[V:4] G,2E,2F,2G,2A,4 | 
[V:1] B8z4 | 
[V:2] G8G4 | 
[V:3] d8d4 | 
[V:4] G,8G,4 | 
[V:1] c8A4 | 
[V:2] E4F8 | 
[V:3] c4A6BA | 
[V:4] A,4F,8 | 
[V:1] G8G4 | 
[V:2] D4E8 | 
[V:3] B8z4 | 
[V:4] G,4E,8 | 
[V:1] A3GF4F4 | 
[V:2] F4A8 | 
[V:3] d4d2cBA3B | 
[V:4] D,12 | 
[V:1] E4B4c4 | 
[V:2] G4E2F2G2A2- | 
[V:3] cde4d2e2A2 | 
[V:4] z12 | 
[V:1] B2e4d2e2A2- | 
[V:2] AGFEF4E4 | 
[V:3] B2c2d4c3d | 
[V:4] z4D,4A,3B, | 
[V:1] A2B2c2A4G2 | 
[V:2] z12 | 
[V:3] e2f4e4d2 | 
[V:4] C2D2A,2C2B,4 | 
[V:1] A2E2z2A2G2c2 | 
[V:2] z2A2G2c2BG2^F | 
[V:3] e4z2e4c2 | 
[V:4] A,4z2A,2E,2A,2 | 
[V:1] B2e4d4g2- | 
[V:2] G8G4 | 
[V:3] d2e2c2d2B4 | 
[V:4] G,2C4B,2G,3F, | 
[V:1] gef3de3B^c2 | 
[V:2] G2A4GFE4 | 
[V:3] G2d2A2B2c3B | 
[V:4] E,2D,2F,2G,2A,4 | 
[V:1] d12- | 
[V:2] D12- | 
[V:3] A2d3c_BA_B4 | 
[V:4] F,2G,2_B,3CD4 | 
[V:1] d12 ||  
[V:2] D12 ||  
[V:3] A12 ||  
[V:4] D,12 ||  
[V:1]  [K:C] [K:clef=treble][M:2/1]z8 | 
[V:2]  [K:C] [K:clef=treble][M:2/1]z8 | 
[V:3]  [K:C] [K:clef=treble-8][M:2/1]d6cB | 
[V:4]  [K:C] [K:clef=bass][M:2/1]D,8 | 
[V:1] z8 | 
[V:2] D8 | 
[V:3] A4B4 | 
[V:4] F,4G,4 | 
[V:1] z8 | 
[V:2] F4G4 | 
[V:3] c3dB4 | 
[V:4] A,4E,4 | 
[V:1] z8 | 
[V:2] A8 | 
[V:3] A4z2A2 | 
[V:4] z4C4 | 
[V:1] z8 | 
[V:2] z8 | 
[V:3] d4B2c2- | 
[V:4] B,4G,2A,2- | 
[V:1] z8 | 
[V:2] z4c4 | 
[V:3] cBAGA4 | 
[V:4] A,G,F,E,F,4 | 
[V:1] z8 | 
[V:2] B4G2A2- | 
[V:3] B4c4 | 
[V:4] G,4E,2F,2- | 
[V:1] z8 | 
[V:2] AGFEF4 | 
[V:3] A8 | 
[V:4] F,E,D,C,D,4 | 
[V:1] z8 | 
[V:2] G4E2F2- | 
[V:3] G3AB2c2- | 
[V:4] E,3F,G,2A,2- | 
[V:1] z8 | 
[V:2] FEDCD4 | 
[V:3] c2B4A2 | 
[V:4] A,E,G,2F,4 | 
[V:1] z8 | 
[V:2] E8- | 
[V:3] B4z2c2- | 
[V:4] E,4z2A,2- | 
[V:1] z8 | 
[V:2] E8 | 
[V:3] c2B2c2BA | 
[V:4] A,2G,2A,2G,2- | 
[V:1] z8 | 
[V:2] z4D4 | 
[V:3] G2c4B2 | 
[V:4] G,2F,E,D,4 | 
[V:1] z8 | 
[V:2] E4G4- | 
[V:3] c8 | 
[V:4] C,4C,D,E,F, | 
[V:1] z8 | 
[V:2] G2FEF2D2 | 
[V:3] z4d4 | 
[V:4] G,2A,2D,2G,2 | 
[V:1] z8 | 
[V:2] CDEFE2D2- | 
[V:3] e4g4- | 
[V:4] C,6B,,2 | 
[V:1] z8 | 
[V:2] D2C4B,2 | 
[V:3] g2fef2ed | 
[V:4] C,4D,4 | 
[V:1] z8 | 
[V:2] C2E3FGA | 
[V:3] e2c3def | 
[V:4] C,8 | 
[V:1] z8 | 
[V:2] G2F4A2- | 
[V:3] e2d4c2- | 
[V:4] z4D,4 | 
[V:1] z8 | 
[V:2] A2GFE4 | 
[V:3] c2B2c4 | 
[V:4] D,4C,4 | 
[V:1] z8 | 
[V:2] z8 | 
[V:3] z2c4B2 | 
[V:4] F,4E,4 | 
[V:1] z8 | 
[V:2] z8 | 
[V:3] A2d4cB | 
[V:4] F,4G,4 | 
[V:1] z8 | 
[V:2] z4D4 | 
[V:3] c2A4_B2- | 
[V:4] A,4F,2G,2- | 
[V:1] z8 | 
[V:2] D4C4 | 
[V:3] BAGFG3A | 
[V:4] G,F,E,D,E,4 | 
[V:1] z8 | 
[V:2] F4E4 | 
[V:3] _BAd4^c2 | 
[V:4] D,4A,,4 | 
[V:1] z8 | 
[V:2] F4G4 | 
[V:3] d4z2e2 | 
[V:4] z8 | 
[V:1] z8 | 
[V:2] A4F2G2- | 
[V:3] f2f2d2e2- | 
[V:4] z8 | 
[V:1] z8 | 
[V:2] GFEDE4 | 
[V:3] edcBc2d^c | 
[V:4] z4A,4 | 
[V:1] z8 | 
[V:2] D8 | 
[V:3] d4z2d2 | 
[V:4] D,3E,F,2G,2- | 
[V:1] z8 | 
[V:2] z4z2A2 | 
[V:3] d4c4 | 
[V:4] G,A,_B,G,A,4 | 
[V:1] z8 | 
[V:2] A4G4 | 
[V:3] f4e4 | 
[V:4] D,4z2G,2 | 
[V:1] z8 | 
[V:2] c4B2c2- | 
[V:3] f4g4 | 
[V:4] A,2A,2G,2C,2 | 
[V:1] z8 | 
[V:2] cBAGA2_B2- | 
[V:3] a4f2g2- | 
[V:4] F,3E,D,2G,2- | 
[V:1] z8 | 
[V:2] BAd3^cc=B/c/ | 
[V:3] gfede4 | 
[V:4] G,A,_B,2A,4 | 
[V:1] z8 | 
[V:2] d8- | 
[V:3] d8- | 
[V:4] D,8 | 
[V:1] z8 ||  
[V:2] d8 ||  
[V:3] d8 ||  
[V:4] D,8 ||  
[V:1]  [K:C] [K:clef=treble][M:3/1]A6B2c4 | 
[V:2]  [K:C] [K:clef=treble][M:3/1]D8A,4 | 
[V:3]  [K:C] [K:clef=treble-8][M:3/1]f6ede4 | 
[V:4]  [K:C] [K:clef=bass][M:3/1]z12 | 
[V:1] d4f6e2 | 
[V:2] B,3CD4D4 | 
[V:3] d6cBA4 | 
[V:4] z4D,8 | 
[V:1] e4c4d4 | 
[V:2] E4F3ED4 | 
[V:3] z2A4c2B2G2- | 
[V:4] A,,8B,,4 | 
[V:1] e3fg2g2f2ed | 
[V:2] C8z4 | 
[V:3] GF/G/A2G2e2dcBA | 
[V:4] C,8D,4 | 
[V:1] c4z4d4 | 
[V:2] G4F8 | 
[V:3] G2e2dcc4B2 | 
[V:4] E,4F,3E,D,4 | 
[V:1] e4c4f4 | 
[V:2] E8D4- | 
[V:3] c8z2d2 | 
[V:4] C,8z4 | 
[V:1] f4e6d2 | 
[V:2] D4E4G4- | 
[V:3] f4c6BA | 
[V:4] z12 | 
[V:1] d6c2c2B2 | 
[V:2] G2FED2F2E4 | 
[V:3] B4A8 | 
[V:4] G,4F,3G,A,4 | 
[V:1] d4A2_B2A2F2- | 
[V:2] D12- | 
[V:3] _B2A4G2A4- | 
[V:4] D,3E,F,2G,2F,2D,2- | 
[V:1] FGA2_BAGFE4 | 
[V:2] D8^C4 | 
[V:3] A4z4z2e2 | 
[V:4] D,E,F,2G,4A,4 | 
[V:1] D2A2_B2A4G2 | 
[V:2] D4z4z4 | 
[V:3] f3ed2c2B4 | 
[V:4] D,2F,2G,2A,2D,2E,2 | 
[V:1] A8z4 | 
[V:2] z12 | 
[V:3] A2f2edd4^c2 | 
[V:4] F,3G,A,2F,2E,4 | 
[V:1] D6E2F4 | 
[V:2] z4D4A4 | 
[V:3] d4A8 | 
[V:4] D,12 | 
[V:1] G4A2F2E4 | 
[V:2] _B4A4A4 | 
[V:3] z4z2d4c2 | 
[V:4] z4D,4A,4 | 
[V:1] D8z2A2 | 
[V:2] G4F8 | 
[V:3] d4d2f3edc | 
[V:4] _B,8A,2A,2 | 
[V:1] _B4c3BG4 | 
[V:2] G4z4z2D2 | 
[V:3] _B4A2c2_BA_B2 | 
[V:4] G,4F,4G,4 | 
[V:1] A2_B2c2d3cBA | 
[V:2] E2F2G2F4E2 | 
[V:3] A2d2c2A2_B4 | 
[V:4] z2D,2E,2F,2G,4 | 
[V:1] A3_BAG/F/E2F3E | 
[V:2] F2F,G,A,B,C4B,2 | 
[V:3] c_BAGF2G4F2 | 
[V:4] F,3E,D,2C,2D,4 | 
[V:1] E4z4z4 | 
[V:2] C4C2E3FG2 | 
[V:3] G4G2c4B2 | 
[V:4] C,8E,4 | 
[V:1] c6d2e4 | 
[V:2] A2F3ED4^C2 | 
[V:3] A6GFG4 | 
[V:4] F,8E,4 | 
[V:1] f6e2d4 | 
[V:2] D12 | 
[V:3] A4z2A2B2A2- | 
[V:4] D,12 | 
[V:1] c2A2_B4A3G | 
[V:2] z2A2F2G2A4 | 
[V:3] ABc2d2e2A2d2- | 
[V:4] z4z4D,4- | 
[V:1] F4E4z2A2 | 
[V:2] z2A3FG2A4 | 
[V:3] d2c2B4A4 | 
[V:4] D,4E,4F,3G, | 
[V:1] F2G2A4_B2A2- | 
[V:2] z4z4z2A2 | 
[V:3] z2_B2c2d4c2 | 
[V:4] A,_B,G,2F,4G,2A,2 | 
[V:1] A2d2c3de3d | 
[V:2] F2G2A4z2A2 | 
[V:3] d4e8 | 
[V:4] _B,4A,3B,C2A,2 | 
[V:1] d2g2f2ed^c3B | 
[V:2] F2G2A8- | 
[V:3] z2e2c2d2e4 | 
[V:4] D2C2F,2D,2A,4 | 
[V:1] d12 ||  
[V:2] A12 ||  
[V:3] d12 ||  
[V:4] D,12 ||  
[V:1]  [K:C] [K:clef=treble][M:2/1]z8 | 
[V:2]  [K:C] [K:clef=treble][M:2/1]A8- :
[V:3]  [K:C] [K:clef=treble-8][M:2/1]A3Bc2d2 | 
[V:4]  [K:C] [K:clef=bass][M:2/1]z4A,3B, | 
[V:1] x4A3B | 
[V:2] A8 :
[V:3] e2f4ed | 
[V:4] C2D4CB, | 
[V:1] c2d2e2f2- | 
[V:2] A8 | 
[V:3] c4z4 | 
[V:4] A,3B,CA,D2- | 
[V:1] fedcd4 | 
[V:2] _B8 :
[V:3] x4z2g2- | 
[V:4] DC_B,A,G,4 | 
[V:1] c8 | 
[V:2] A8- :
[V:3] gff3ee2- | 
[V:4] A,8 | 
[V:1] z8 | 
[V:2] A8 | 
[V:3] e2dcd4 | 
[V:4] F,4F,4 | 
[V:1] z4z2g2- | 
[V:2] G8 :
[V:3] e8 | 
[V:4] E,8 | 
[V:1] gff3ee2- | 
[V:2] A4E4 :
[V:3] A8- | 
[V:4] D,4C,4 | 
[V:1] e2dcd4 | 
[V:2] F8 | 
[V:3] A8 | 
[V:4] D,8 | 
[V:1] e8 | 
[V:2] E8- :
[V:3] z4z2c2- | 
[V:4] z2A,3B,CD | 
[V:1] z4z2c2- | 
[V:2] E8 :
[V:3] cdefg2e2 | 
[V:4] E2A,2G,2A,2- | 
[V:1] cdefg2e2 | 
[V:2] A4G4 | 
[V:3] f2e2c4 | 
[V:4] A,2G,F,E,4 | 
[V:1] f2e2c2e2- | 
[V:2] A6G2 :
[V:3] z2e2f2e2 | 
[V:4] D,2A,4C2- | 
[V:1] e2d4^c2 | 
[V:2] E8 :
[V:3] c2d2e4 | 
[V:4] C2B,2A,4 | 
[V:1] d8 | 
[V:2] F8 | 
[V:3] d4z2f2 | 
[V:4] D,4z2D2 | 
[V:1] z8 | 
[V:2] G8 :
[V:3] e2c2d2c_B | 
[V:4] C2_B,A,B,2A,G, | 
[V:1] z4z2f2 | 
[V:2] A8- :
[V:3] A8 | 
[V:4] F,8 | 
[V:1] e2c2d2c_B | 
[V:2] A8 | 
[V:3] z2f4e2 | 
[V:4] z2F,3G,A,2 | 
[V:1] A8 | 
[V:2] D8 :
[V:3] f3ed2c_B | 
[V:4] F,2D,3E,F,G, | 
[V:1] z2f4e2 | 
[V:2] C8 :
[V:3] A8 | 
[V:4] A,2F,3G,A,2 | 
[V:1] f3ed2c_B | 
[V:2] D8 | 
[V:3] z2A2_B2d2- | 
[V:4] D,8 | 
[V:1] A8 | 
[V:2] F8 :
[V:3] d2A2dcBA | 
[V:4] D,4D,4 | 
[V:1] z8 | 
[V:2] E8- :
[V:3] GABcB2A2- | 
[V:4] E,4G,2A,2 | 
[V:1] x4z2A2 | 
[V:2] E8 | 
[V:3] A2^G2A4 | 
[V:4] E,4z4 | 
[V:1] _B2d4A2 | 
[V:2] D8- :
[V:3] z2_B2d4 | 
[V:4] G,3A,_B,CD2 | 
[V:1] dc_BAGABc | 
[V:2] D8- :
[V:3] _B2d3c_BA | 
[V:4] G,3A,_B,2G,2- | 
[V:1] _B2A3GG2 | 
[V:2] D8- | 
[V:3] G2A2_B4 | 
[V:4] G,2F,2G,4 | 
[V:1] A2F2G4 | 
[V:2] D8 :
[V:3] z2_B2_B4 | 
[V:4] z2D,2G,4 | 
[V:1] F8 |]  
[V:2] D8 |]  
[V:3] A8 |]  
[V:4] D,8 |]  



